docs/assets/hair_curlyLong_red.svg

<svg width="450" height="378" viewBox="0 0 450 378" fill="none" xmlns="http://www.w3.org/2000/svg">
<path d="M223.383 85.7447C223.383 85.7447 230.532 78.3407 225.936 69.6597C222.084 62.3827 213.936 62.5107 213.936 62.5107C213.936 62.5107 219.723 48.6387 211.553 42.1707C204.371 36.4847 193.851 40.4687 193.851 40.4687C193.851 40.4687 196.915 27.5327 186.021 23.1067C174.649 18.4867 164.915 26.8517 164.915 26.8517C164.915 26.8517 159.128 15.2777 146.532 17.3197C133.024 19.5107 130.532 32.9797 130.532 32.9797C130.532 32.9797 117.255 22.7667 104.66 30.9367C91.9741 39.1657 96.4901 54.4257 96.4901 54.4257C96.4901 54.4257 80.5521 47.5977 69.2561 59.5317C58.7031 70.6807 65.5111 85.7447 65.5111 85.7447C65.5111 85.7447 51.1101 86.8497 49.0001 101.319C46.6171 117.659 60.2341 123.532 60.2341 123.532C60.2341 123.532 49.8511 129.66 53.5961 141.66C57.2101 153.242 67.8941 153.149 67.8941 153.149C67.8941 153.149 58.2821 162.405 64.0641 172.043C68.6601 179.702 79.4681 178 79.4681 178C79.4681 178 76.0371 190.584 88.6591 196.383C101.255 202.17 108.744 191.617 108.744 191.617C108.744 191.617 111.297 203.191 120.489 203.191C130.361 203.191 134.276 195.702 134.276 195.702C134.276 195.702 137.34 203.191 146.191 201.149C154.973 199.122 155.042 189.915 155.042 189.915C155.042 189.915 164.719 190.461 166.957 188.298C172.063 183.362 170.484 173.036 168.829 169.064C166.862 164.341 158.276 154.17 158.276 154.17C158.276 154.17 155.991 148.543 155.723 141.744C155.473 135.385 157.255 131.701 156.234 126.425C155.455 122.4 150.617 112.978 150.617 112.978C150.617 112.978 166.106 89.4887 190.447 83.0207C205.352 79.0597 218.873 81.6587 218.873 81.6587L223.383 85.7447Z" fill="#9C1F00" stroke="#3E2670" stroke-width="4" stroke-miterlimit="10"/>
<path opacity="0.2" d="M58.8299 122.851C58.8299 122.851 48.4469 128.979 52.1919 140.979C55.8059 152.561 66.4899 152.468 66.4899 152.468C66.4899 152.468 56.8779 161.724 62.6599 171.362C67.2559 179.022 78.0639 177.319 78.0639 177.319C78.0639 177.319 74.6329 189.903 87.2549 195.702C99.8509 201.489 107.34 190.936 107.34 190.936C107.34 190.936 109.893 202.51 119.085 202.51C128.957 202.51 132.872 195.021 132.872 195.021C132.872 195.021 135.936 202.51 144.787 200.468C153.569 198.441 153.638 189.234 153.638 189.234C153.638 189.234 159.638 194.425 166.106 188.468C169.111 185.7 172.574 181.659 170.532 171.787C169.178 165.244 156.872 153.489 156.872 153.489L153.829 147.106L136.893 142.936C136.893 142.936 134.797 152.433 124.127 153.915C114.936 155.192 110.85 147.277 110.85 147.277C110.85 147.277 96.2969 158.511 81.4879 149.064C66.5599 139.541 74.3389 119.958 74.3389 119.958C74.3389 119.958 62.5939 121.235 55.9559 110.511C50.6309 101.909 55.5299 91.958 55.5299 91.958C55.5299 91.958 50.0829 94.341 48.3809 105.235C46.3819 118.042 58.8299 122.851 58.8299 122.851Z" fill="#3E2670"/>
<path opacity="0.6" d="M212.404 64.3831C212.404 64.3831 218.518 49.1951 211.042 43.2771C204.471 38.0751 193.34 42.9371 193.34 42.9371C193.34 42.9371 197.348 28.5051 186.191 24.2141C172.914 19.1081 165.765 28.2991 165.765 28.2991C165.765 28.2991 159.588 16.2171 148.063 18.0861C135.703 20.0901 132.403 35.9581 132.403 35.9581C132.403 35.9581 122.262 25.7061 109.424 30.5961C96.9129 35.3621 99.0409 44.8941 99.0409 44.8941C99.0409 44.8941 100.743 35.9581 114.36 36.1281C128.149 36.3001 135.126 47.8731 135.126 47.8731C135.126 47.8731 138.755 32.3141 149.764 31.7031C162.019 31.0221 164.658 40.5541 164.658 40.5541C164.658 40.5541 172.998 27.8731 184.488 33.7451C190.724 36.9321 188.743 47.3621 188.743 47.3621C188.743 47.3621 202.02 41.0641 210.105 47.7021C217.698 53.9351 212.404 64.3831 212.404 64.3831Z" fill="#DA725A"/>
<path opacity="0.6" d="M177.461 52.5193C176.832 51.5853 175.952 50.7883 174.94 50.1803C173.925 49.5363 172.738 49.2903 171.569 49.1093C170.373 49.0303 169.103 49.1143 167.919 49.5723C166.745 50.0213 165.683 50.7273 164.801 51.5713C163.927 52.4203 163.212 53.3793 162.605 54.3843C162.571 54.4403 162.542 54.4993 162.509 54.5563C162.069 54.1213 161.613 53.7003 161.135 53.2983C159.853 52.2413 158.406 51.3103 156.778 50.6483C155.16 49.9923 153.355 49.5453 151.511 49.5923C149.677 49.6263 147.848 49.9873 146.2 50.7413C144.505 51.3823 142.954 52.5513 141.656 53.8923C140.361 55.2703 139.455 56.9133 138.791 58.5763C138.205 60.0653 137.909 61.5853 137.729 63.0923C137.535 63.0013 137.345 62.9043 137.148 62.8173C135.231 61.9783 133.128 61.3993 130.903 61.2293C128.692 61.0773 126.32 61.3103 124.187 62.2293C123.64 62.4153 123.16 62.7343 122.648 62.9893L121.896 63.4003C121.659 63.5523 121.442 63.7283 121.216 63.8923L119.882 64.9083C119.492 65.2773 119.097 65.6353 118.719 66.0203C117.229 67.5823 115.928 69.5003 115.196 71.6913C115.116 71.9233 115.047 72.1593 114.981 72.3953C113.283 71.3373 111.386 70.5423 109.338 70.0663C107.739 69.7193 106.021 69.6293 104.299 69.9193C102.582 70.2053 100.88 70.9013 99.4232 71.9153C97.9672 72.9093 96.6472 74.2423 95.7132 75.8393C95.2532 76.6373 94.8752 77.4813 94.5862 78.3483C94.3162 79.2193 94.1352 80.1043 94.0242 80.9873C93.7992 82.7563 93.9252 84.4973 94.2052 86.1683C94.3282 86.8373 94.4872 87.4943 94.6662 88.1453C94.5992 88.1623 94.5302 88.1723 94.4632 88.1903C93.3642 88.4813 92.2782 88.8873 91.2382 89.4473C90.1972 90.0043 89.1972 90.7203 88.3522 91.6313C87.4942 92.5123 86.8302 93.6603 86.4272 94.7603C86.0212 95.8933 85.7952 97.1453 85.9322 98.3643C86.0392 99.5833 86.4782 100.721 87.0812 101.667C87.6732 102.626 88.4182 103.423 89.2442 104.076C90.0592 104.737 90.9502 105.278 91.8952 105.659C90.5332 104.174 89.4502 102.491 88.9532 100.8C88.4832 99.0843 88.7352 97.5283 89.5752 96.2013C90.3842 94.8373 91.6052 94.0023 93.1122 93.3953C93.8672 93.1103 94.6752 92.8923 95.5092 92.7383C95.9262 92.6633 96.3512 92.6093 96.7732 92.5693C97.1732 92.5243 97.6682 92.4963 97.9522 92.5003L101.524 92.5563L100.142 89.0573C99.9532 88.5783 99.7322 87.8633 99.5552 87.2473C99.3772 86.6053 99.2312 85.9543 99.1242 85.3043C98.8922 84.0083 98.8072 82.7103 98.8972 81.4783C99.0752 79.0053 100.008 76.8163 101.89 75.1213C103.726 73.4533 106.248 72.5913 109.05 72.6053C110.91 72.5893 112.823 72.9163 114.733 73.4493C114.417 75.1103 114.42 76.8163 114.697 78.4043C115.05 80.5793 115.841 82.5603 116.833 84.3503C117.128 84.8833 117.448 85.3963 117.779 85.8993C116.383 86.1933 114.988 86.6633 113.684 87.4013C112.343 88.1473 111.097 89.2333 110.27 90.5843C109.428 91.9033 108.923 93.4283 108.814 94.8533L108.699 95.9223L108.731 97.0153C108.711 97.7373 108.915 98.4623 109.04 99.1703C109.437 100.576 110.117 101.88 111.04 102.945C112.921 105.045 115.413 106.298 117.958 106.846C115.611 105.739 113.542 104.076 112.271 102.038C111.664 100.999 111.324 99.8763 111.158 98.7543C111.155 98.1743 111.061 97.6193 111.172 97.0423L111.267 96.1923L111.493 95.3473C112.056 93.0963 113.402 91.4853 115.368 90.6943C116.333 90.2803 117.415 90.0373 118.533 89.9323C119.091 89.8763 119.66 89.8493 120.228 89.8623C120.772 89.8663 121.415 89.9143 121.836 89.9843L127.444 90.9103L123.725 86.2403C123.298 85.7043 122.778 84.9573 122.357 84.2773C121.923 83.5763 121.531 82.8523 121.194 82.1173C120.528 80.6463 120.043 79.1343 119.9 77.6713C119.74 76.2053 119.926 74.8193 120.412 73.5493C120.896 72.2733 121.753 71.1193 122.814 70.0653L123.657 69.2983L124.534 68.6803C124.68 68.5793 124.818 68.4613 124.968 68.3703L125.434 68.1443C125.749 68.0083 126.035 67.7943 126.364 67.7073C127.628 67.2063 129.004 67.0693 130.429 67.1763C131.858 67.2883 133.333 67.7113 134.779 68.3173C135.499 68.6303 136.216 68.9773 136.904 69.3823C137.253 69.5773 137.588 69.7913 137.92 70.0073C138.232 70.2133 138.601 70.4783 138.802 70.6343L144.917 75.3763L143.617 67.8313C143.586 67.6533 143.547 67.2853 143.517 66.9933C143.497 66.6773 143.458 66.3633 143.456 66.0433C143.431 65.4063 143.431 64.7633 143.481 64.1343C143.573 62.8783 143.768 61.6363 144.168 60.5343C144.562 59.4353 145.065 58.4093 145.779 57.5863C146.52 56.7973 147.329 56.0453 148.401 55.5773C149.418 55.0163 150.557 54.7433 151.675 54.6413C152.804 54.5083 153.968 54.7063 155.123 55.0673C156.275 55.4413 157.427 56.0103 158.508 56.7483C159.045 57.1223 159.575 57.5203 160.072 57.9593C160.565 58.3743 161.088 58.8893 161.453 59.2843L164.182 62.2363L164.902 58.5853C165.052 57.8243 165.385 56.8563 165.752 56.0483C166.125 55.2133 166.576 54.4233 167.12 53.7403C167.676 53.0713 168.31 52.5113 169.031 52.0883C169.756 51.6683 170.595 51.4893 171.479 51.4013C173.284 51.3373 175.101 51.9363 176.483 53.3303C177.843 54.7183 178.834 56.6003 179.392 58.6143C179.301 56.5243 178.738 54.3753 177.461 52.5193Z" fill="#DA725A"/>
<path d="M120.489 205.691C113.329 205.691 109.548 200.262 107.737 196.276C103.509 199.76 96.3618 202.672 87.6148 198.654C78.2238 194.341 76.2099 186.244 76.5359 180.661C72.4529 180.605 65.6259 179.506 61.9199 173.328C57.8249 166.503 60.2019 159.472 63.2549 154.878C58.8419 153.477 53.5579 149.933 51.2079 142.404C48.5489 133.882 52.1649 127.415 55.8719 123.791C51.5149 120.62 44.6929 113.522 46.5249 100.958C48.1129 90.0696 56.2329 85.3096 62.1639 83.7906C60.5839 78.4616 58.6989 67.0456 67.4379 57.8116C76.2249 48.5276 87.3489 49.4206 93.2929 50.8196C92.6829 44.2166 94.2848 34.6826 103.297 28.8376C113.603 22.1526 124.084 26.2976 129.073 29.0866C131.188 23.6246 136.343 16.4376 146.129 14.8506C155.668 13.3016 162.361 18.7646 165.631 23.2676C169.496 20.8276 177.675 17.0176 186.96 20.7886C194.998 24.0546 196.921 31.5406 196.77 37.1066C200.936 36.3076 207.72 35.9476 213.103 40.2096C220.107 45.7536 218.079 55.9426 216.345 61.3196C220.132 61.6816 225.72 63.2036 228.654 68.7446C232.998 76.9496 228.219 84.6476 225.087 87.5716C224.138 88.4586 222.666 88.4696 221.703 87.5966L217.737 84.0046C214.906 83.5726 203.41 82.1616 191.087 85.4366C171.027 90.7676 156.973 108.477 153.523 113.194C154.949 116.07 158.022 122.515 158.687 125.949C159.333 129.29 158.998 131.985 158.642 134.838C158.384 136.907 158.118 139.046 158.22 141.645C158.432 147.037 159.477 152.756 159.835 154.585C161.774 156.926 169.66 166.716 172.051 173.889C174.546 181.371 172.853 187.084 166.877 191.352C164.329 193.173 160.044 193.091 157.193 192.774C156.29 196.805 153.457 202.036 146.752 203.584C140.726 204.975 136.564 202.643 134.14 199.995C131.733 202.537 127.359 205.691 120.489 205.691ZM108.744 189.123C108.912 189.123 109.081 189.14 109.249 189.175C110.213 189.375 110.973 190.118 111.186 191.08C111.206 191.17 113.441 200.692 120.489 200.692C128.752 200.692 132.029 194.606 132.06 194.545C132.511 193.683 133.434 193.158 134.393 193.206C135.365 193.251 136.222 193.856 136.59 194.757C136.824 195.302 139.139 200.209 145.629 198.715C152.41 197.15 152.54 190.193 152.542 189.898C152.548 189.15 152.888 188.444 153.469 187.974C154.052 187.503 154.813 187.318 155.545 187.468C158.211 188.01 162.625 188.249 163.972 187.287C168.145 184.306 169.112 180.883 167.309 175.473C164.936 168.355 155.699 157.432 155.605 157.323C155.336 157.007 155.151 156.629 155.065 156.223C155.001 155.922 153.498 148.777 153.225 141.845C153.106 138.838 153.412 136.387 153.682 134.223C154 131.669 154.275 129.463 153.779 126.902C153.196 123.887 149.693 116.654 148.393 114.122C147.981 113.319 148.033 112.357 148.53 111.603C149.184 110.612 164.831 87.2416 189.804 80.6056C205.086 76.5436 218.768 79.0946 219.344 79.2046C219.793 79.2906 220.211 79.4996 220.55 79.8066L223.148 82.1596C224.734 79.9076 226.707 75.7486 224.237 71.0856C221.22 65.3866 213.115 66.2606 213.033 66.2716C212.139 66.3756 211.251 65.9876 210.72 65.2556C210.189 64.5246 210.095 63.5626 210.473 62.7416C210.533 62.6106 216.526 49.2966 210 44.1306C204 39.3806 194.826 42.7706 194.735 42.8066C193.871 43.1356 192.895 42.9566 192.2 42.3476C191.505 41.7376 191.204 40.7926 191.417 39.8926C191.518 39.4556 193.82 28.9746 185.079 25.4236C175.306 21.4516 166.891 28.4526 166.537 28.7526C165.952 29.2496 165.167 29.4516 164.415 29.2986C163.663 29.1446 163.02 28.6566 162.677 27.9696C162.474 27.5736 157.505 18.0726 146.93 19.7876C135.294 21.6746 133.01 33.3166 132.988 33.4336C132.829 34.2896 132.237 35.0016 131.425 35.3136C130.612 35.6246 129.696 35.4916 129.006 34.9606C128.523 34.5926 116.944 25.9486 106.019 33.0336C95.0948 40.1196 98.7269 53.1706 98.8879 53.7226C99.1569 54.6506 98.8668 55.6546 98.1438 56.2946C97.4188 56.9356 96.3918 57.1036 95.5038 56.7236C94.9208 56.4776 80.9979 50.7626 71.0699 61.2506C61.8299 71.0116 67.5429 84.1656 67.7909 84.7206C68.1219 85.4636 68.0729 86.3236 67.6569 87.0216C67.2409 87.7196 66.5119 88.1756 65.7019 88.2376C65.2029 88.2796 53.2609 89.4246 51.4729 101.681C49.4079 115.848 60.7489 121.028 61.2329 121.241C62.0899 121.619 62.6689 122.448 62.7239 123.384C62.7789 124.32 62.3109 125.21 61.5039 125.686C61.1609 125.894 52.8919 131.015 55.9819 140.916C58.9749 150.506 67.5239 150.648 67.8869 150.65C68.9049 150.654 69.8269 151.275 70.2059 152.219C70.5849 153.164 70.3609 154.244 69.6269 154.95C69.2989 155.269 61.5349 162.97 66.2069 170.757C69.8919 176.899 78.9879 175.544 79.0789 175.531C79.9189 175.4 80.7649 175.702 81.3299 176.333C81.8959 176.965 82.1028 177.84 81.8798 178.659C81.7688 179.08 79.2209 189.297 89.7029 194.113C100.2 198.933 106.451 190.523 106.712 190.163C107.189 189.502 107.951 189.123 108.744 189.123Z" fill="#3E2670"/>
</svg>

<?xml version="1.0" encoding="utf-8"?>
<!-- Generator: Adobe Illustrator 23.0.1, SVG Export Plug-In . SVG Version: 6.00 Build 0)  -->
<svg version="1.1" id="Hair" xmlns="http://www.w3.org/2000/svg" xmlns:xlink="http://www.w3.org/1999/xlink" x="0px" y="0px"
	 width="450px" height="378px" viewBox="0 0 450 378" enable-background="new 0 0 450 378" xml:space="preserve">
<path fill="#DC4A26" d="M223.383,85.745c0,0,7.149-7.404,2.553-16.085c-3.852-7.277-12-7.149-12-7.149s5.787-13.872-2.383-20.34
	c-7.182-5.686-17.702-1.702-17.702-1.702s3.064-12.936-7.83-17.362c-11.372-4.62-21.106,3.745-21.106,3.745
	s-5.787-11.574-18.383-9.532c-13.508,2.191-16,15.66-16,15.66s-13.277-10.213-25.872-2.043c-12.686,8.229-8.17,23.489-8.17,23.489
	s-15.938-6.828-27.234,5.106c-10.553,11.149-3.745,26.213-3.745,26.213S51.11,86.85,49,101.319
	c-2.383,16.34,11.234,22.213,11.234,22.213s-10.383,6.128-6.638,18.128c3.614,11.582,14.298,11.489,14.298,11.489
	s-9.612,9.256-3.83,18.894C68.66,179.702,79.468,178,79.468,178s-3.431,12.584,9.191,18.383c12.596,5.787,20.085-4.766,20.085-4.766
	s2.553,11.574,11.745,11.574c9.872,0,13.787-7.489,13.787-7.489s3.064,7.489,11.915,5.447c8.782-2.027,8.851-11.234,8.851-11.234
	s9.677,0.546,11.915-1.617c5.106-4.936,3.527-15.262,1.872-19.234c-1.967-4.723-10.553-14.894-10.553-14.894
	s-2.285-5.627-2.553-12.426c-0.25-6.359,1.532-10.043,0.511-15.319c-0.779-4.025-5.617-13.447-5.617-13.447
	s15.489-23.489,39.83-29.957c14.905-3.961,28.426-1.362,28.426-1.362L223.383,85.745z"/>
<path opacity="0.3" fill="#3E2670" d="M58.83,122.851c0,0-10.383,6.128-6.638,18.128c3.614,11.582,14.298,11.489,14.298,11.489
	s-9.612,9.256-3.83,18.894c4.596,7.66,15.404,5.957,15.404,5.957s-3.431,12.584,9.191,18.383
	c12.596,5.787,20.085-4.766,20.085-4.766s2.553,11.574,11.745,11.574c9.872,0,13.787-7.489,13.787-7.489s3.064,7.489,11.915,5.447
	c8.782-2.027,8.851-11.234,8.851-11.234s6,5.191,12.468-0.766c3.005-2.768,6.468-6.809,4.426-16.681
	c-1.354-6.543-13.66-18.298-13.66-18.298l-3.043-6.383l-16.936-4.17c0,0-2.096,9.497-12.766,10.979
	c-9.191,1.277-13.277-6.638-13.277-6.638s-14.553,11.234-29.362,1.787c-14.928-9.523-7.149-29.106-7.149-29.106
	s-11.745,1.277-18.383-9.447c-5.325-8.602-0.426-18.553-0.426-18.553s-5.447,2.383-7.149,13.277
	C46.382,118.042,58.83,122.851,58.83,122.851z"/>
<path opacity="0.4" fill="#FFFFFF" d="M212.404,64.383c0,0,6.114-15.188-1.362-21.106c-6.571-5.202-17.702-0.34-17.702-0.34
	s4.008-14.432-7.149-18.723c-13.277-5.106-20.426,4.085-20.426,4.085s-6.177-12.082-17.702-10.213
	c-12.36,2.004-15.66,17.872-15.66,17.872s-10.141-10.252-22.979-5.362c-12.511,4.766-10.383,14.298-10.383,14.298
	s1.702-8.936,15.319-8.766c13.789,0.172,20.766,11.745,20.766,11.745s3.629-15.559,14.638-16.17
	c12.255-0.681,14.894,8.851,14.894,8.851s8.34-12.681,19.83-6.809c6.236,3.187,4.255,13.617,4.255,13.617s13.277-6.298,21.362,0.34
	C217.698,53.935,212.404,64.383,212.404,64.383z"/>
<path opacity="0.4" fill="#FFFFFF" d="M177.461,52.519c-0.629-0.934-1.509-1.731-2.521-2.339c-1.015-0.644-2.202-0.89-3.371-1.071
	c-1.196-0.079-2.466,0.005-3.65,0.463c-1.174,0.449-2.236,1.155-3.118,1.999c-0.874,0.849-1.589,1.808-2.196,2.813
	c-0.034,0.056-0.063,0.115-0.096,0.172c-0.44-0.435-0.896-0.856-1.374-1.258c-1.282-1.057-2.729-1.988-4.357-2.65
	c-1.618-0.656-3.423-1.103-5.267-1.056c-1.834,0.034-3.663,0.395-5.311,1.149c-1.695,0.641-3.246,1.81-4.544,3.151
	c-1.295,1.378-2.201,3.021-2.865,4.684c-0.586,1.489-0.882,3.009-1.062,4.516c-0.194-0.091-0.384-0.188-0.581-0.275
	c-1.917-0.839-4.02-1.418-6.245-1.588c-2.211-0.152-4.583,0.081-6.716,1c-0.547,0.186-1.027,0.505-1.539,0.76l-0.752,0.411
	c-0.237,0.152-0.454,0.328-0.68,0.492l-1.334,1.016c-0.39,0.369-0.785,0.727-1.163,1.112c-1.49,1.562-2.791,3.48-3.523,5.671
	c-0.08,0.232-0.149,0.468-0.215,0.704c-1.698-1.058-3.595-1.853-5.643-2.329c-1.599-0.347-3.317-0.437-5.039-0.147
	c-1.717,0.286-3.419,0.982-4.876,1.996c-1.456,0.994-2.776,2.327-3.71,3.924c-0.46,0.798-0.838,1.642-1.127,2.509
	c-0.27,0.871-0.451,1.756-0.562,2.639c-0.225,1.769-0.099,3.51,0.181,5.181c0.123,0.669,0.282,1.326,0.461,1.977
	c-0.067,0.017-0.136,0.027-0.203,0.045c-1.099,0.291-2.185,0.697-3.225,1.257c-1.041,0.557-2.041,1.273-2.886,2.184
	c-0.858,0.881-1.522,2.029-1.925,3.129c-0.406,1.133-0.632,2.385-0.495,3.604c0.107,1.219,0.546,2.357,1.149,3.303
	c0.592,0.959,1.337,1.756,2.163,2.409c0.815,0.661,1.706,1.202,2.651,1.583c-1.362-1.485-2.445-3.168-2.942-4.859
	c-0.47-1.716-0.218-3.272,0.622-4.599c0.809-1.364,2.03-2.199,3.537-2.806c0.755-0.285,1.563-0.503,2.397-0.657
	c0.417-0.075,0.842-0.129,1.264-0.169c0.4-0.045,0.895-0.073,1.179-0.069l3.572,0.056l-1.382-3.499
	c-0.189-0.479-0.41-1.194-0.587-1.81c-0.178-0.642-0.324-1.293-0.431-1.943c-0.232-1.296-0.317-2.594-0.227-3.826
	c0.178-2.473,1.111-4.662,2.993-6.357c1.836-1.668,4.358-2.53,7.16-2.516c1.86-0.016,3.773,0.311,5.683,0.844
	c-0.316,1.661-0.313,3.367-0.036,4.955c0.353,2.175,1.144,4.156,2.136,5.946c0.295,0.533,0.615,1.046,0.946,1.549
	c-1.396,0.294-2.791,0.764-4.095,1.502c-1.341,0.746-2.587,1.832-3.414,3.183c-0.842,1.319-1.347,2.844-1.456,4.269l-0.115,1.069
	l0.032,1.093c-0.02,0.722,0.184,1.447,0.309,2.155c0.397,1.406,1.077,2.71,2,3.775c1.881,2.1,4.373,3.353,6.918,3.901
	c-2.347-1.107-4.416-2.77-5.687-4.808c-0.607-1.039-0.947-2.162-1.113-3.284c-0.003-0.58-0.097-1.135,0.014-1.712l0.095-0.85
	l0.226-0.845c0.563-2.251,1.909-3.862,3.875-4.653c0.965-0.414,2.047-0.657,3.165-0.762c0.558-0.056,1.127-0.083,1.695-0.07
	c0.544,0.004,1.187,0.052,1.608,0.122l5.608,0.926l-3.719-4.67c-0.427-0.536-0.947-1.283-1.368-1.963
	c-0.434-0.701-0.826-1.425-1.163-2.16c-0.666-1.471-1.151-2.983-1.294-4.446c-0.16-1.466,0.026-2.852,0.512-4.122
	c0.484-1.276,1.341-2.43,2.402-3.484l0.843-0.767l0.877-0.618c0.146-0.101,0.284-0.219,0.434-0.31l0.466-0.226
	c0.315-0.136,0.601-0.35,0.93-0.437c1.264-0.501,2.64-0.638,4.065-0.531c1.429,0.112,2.904,0.535,4.35,1.141
	c0.72,0.313,1.437,0.66,2.125,1.065c0.349,0.195,0.684,0.409,1.016,0.625c0.312,0.206,0.681,0.471,0.882,0.627l6.115,4.742
	l-1.3-7.545c-0.031-0.178-0.07-0.546-0.1-0.838c-0.02-0.316-0.059-0.63-0.061-0.95c-0.025-0.637-0.025-1.28,0.025-1.909
	c0.092-1.256,0.287-2.498,0.687-3.6c0.394-1.099,0.897-2.125,1.611-2.948c0.741-0.789,1.55-1.541,2.622-2.009
	c1.017-0.561,2.156-0.834,3.274-0.936c1.129-0.133,2.293,0.065,3.448,0.426c1.152,0.374,2.304,0.943,3.385,1.681
	c0.537,0.374,1.067,0.772,1.564,1.211c0.493,0.415,1.016,0.93,1.381,1.325l2.729,2.952l0.72-3.651
	c0.15-0.761,0.483-1.729,0.85-2.537c0.373-0.835,0.824-1.625,1.368-2.308c0.556-0.669,1.19-1.229,1.911-1.652
	c0.725-0.42,1.564-0.599,2.448-0.687c1.805-0.064,3.622,0.535,5.004,1.929c1.36,1.388,2.351,3.27,2.909,5.284
	C179.301,56.524,178.738,54.375,177.461,52.519z"/>
<path fill="#3E2670" d="M120.489,205.691c-7.16,0-10.941-5.429-12.752-9.415c-4.228,3.484-11.375,6.396-20.122,2.378
	c-9.391-4.313-11.405-12.41-11.079-17.993c-4.083-0.056-10.91-1.155-14.616-7.333c-4.095-6.825-1.718-13.856,1.335-18.45
	c-4.413-1.401-9.697-4.945-12.047-12.474c-2.659-8.522,0.957-14.989,4.664-18.613c-4.357-3.171-11.179-10.269-9.347-22.833
	c1.588-10.888,9.708-15.648,15.639-17.167c-1.58-5.329-3.465-16.745,5.274-25.979c8.787-9.284,19.911-8.391,25.855-6.992
	c-0.61-6.603,0.992-16.137,10.004-21.982c10.306-6.685,20.787-2.54,25.776,0.249c2.115-5.462,7.27-12.649,17.056-14.236
	c9.539-1.549,16.232,3.914,19.502,8.417c3.865-2.44,12.044-6.25,21.329-2.479c8.038,3.266,9.961,10.752,9.81,16.318
	c4.166-0.799,10.95-1.159,16.333,3.103c7.004,5.544,4.976,15.733,3.242,21.11c3.787,0.362,9.375,1.884,12.309,7.425
	c4.344,8.205-0.435,15.903-3.567,18.827c-0.949,0.887-2.421,0.898-3.384,0.025l-3.966-3.592c-2.831-0.432-14.327-1.843-26.65,1.432
	c-20.06,5.331-34.114,23.04-37.564,27.757c1.426,2.876,4.499,9.321,5.164,12.755c0.646,3.341,0.311,6.036-0.045,8.889
	c-0.258,2.069-0.524,4.208-0.422,6.807c0.212,5.392,1.257,11.111,1.615,12.94c1.939,2.341,9.825,12.131,12.216,19.304
	c2.495,7.482,0.802,13.195-5.174,17.463c-2.548,1.821-6.833,1.739-9.684,1.422c-0.903,4.031-3.736,9.262-10.441,10.81
	c-6.026,1.391-10.188-0.941-12.612-3.589C131.733,202.537,127.359,205.691,120.489,205.691z M108.744,189.123
	c0.168,0,0.337,0.017,0.505,0.052c0.964,0.2,1.724,0.943,1.937,1.905c0.02,0.09,2.255,9.612,9.303,9.612
	c8.263,0,11.54-6.086,11.571-6.147c0.451-0.862,1.374-1.387,2.333-1.339c0.972,0.045,1.829,0.65,2.197,1.551
	c0.234,0.545,2.549,5.452,9.039,3.958c6.781-1.565,6.911-8.522,6.913-8.817c0.006-0.748,0.346-1.454,0.927-1.924
	c0.583-0.471,1.344-0.656,2.076-0.506c2.666,0.542,7.08,0.781,8.427-0.181c4.173-2.981,5.14-6.404,3.337-11.814
	c-2.373-7.118-11.61-18.041-11.704-18.15c-0.269-0.316-0.454-0.694-0.54-1.1c-0.064-0.301-1.567-7.446-1.84-14.378
	c-0.119-3.007,0.187-5.458,0.457-7.622c0.318-2.554,0.593-4.76,0.097-7.321c-0.583-3.015-4.086-10.248-5.386-12.78
	c-0.412-0.803-0.36-1.765,0.137-2.519c0.654-0.991,16.301-24.361,41.274-30.997c15.282-4.062,28.964-1.511,29.54-1.401
	c0.449,0.086,0.867,0.295,1.206,0.602l2.598,2.353c1.586-2.252,3.559-6.411,1.089-11.074c-3.017-5.699-11.122-4.825-11.204-4.814
	c-0.894,0.104-1.782-0.284-2.313-1.016c-0.531-0.731-0.625-1.693-0.247-2.514c0.06-0.131,6.053-13.445-0.473-18.611
	c-6-4.75-15.174-1.36-15.265-1.324c-0.864,0.329-1.84,0.15-2.535-0.459c-0.695-0.61-0.996-1.555-0.783-2.455
	c0.101-0.437,2.403-10.918-6.338-14.469c-9.773-3.972-18.188,3.029-18.542,3.329c-0.585,0.497-1.37,0.699-2.122,0.546
	c-0.752-0.154-1.395-0.642-1.738-1.329c-0.203-0.396-5.172-9.897-15.747-8.182c-11.636,1.887-13.92,13.529-13.942,13.646
	c-0.159,0.856-0.751,1.568-1.563,1.88c-0.813,0.311-1.729,0.178-2.419-0.353c-0.483-0.368-12.062-9.012-22.987-1.927
	c-10.924,7.086-7.292,20.137-7.131,20.689c0.269,0.928-0.021,1.932-0.744,2.572c-0.725,0.641-1.752,0.809-2.64,0.429
	c-0.583-0.246-14.506-5.961-24.434,4.527c-9.24,9.761-3.527,22.915-3.279,23.47c0.331,0.743,0.282,1.603-0.134,2.301
	c-0.416,0.698-1.145,1.154-1.955,1.216c-0.499,0.042-12.441,1.187-14.229,13.443c-2.065,14.167,9.276,19.347,9.76,19.56
	c0.857,0.378,1.436,1.207,1.491,2.143s-0.413,1.826-1.22,2.302c-0.343,0.208-8.612,5.329-5.522,15.23
	c2.993,9.59,11.542,9.732,11.905,9.734c1.018,0.004,1.94,0.625,2.319,1.569c0.379,0.945,0.155,2.025-0.579,2.731
	c-0.328,0.319-8.092,8.02-3.42,15.807c3.685,6.142,12.781,4.787,12.872,4.774c0.84-0.131,1.686,0.171,2.251,0.802
	c0.566,0.632,0.773,1.507,0.55,2.326c-0.111,0.421-2.659,10.638,7.823,15.454c10.497,4.82,16.748-3.59,17.009-3.95
	C107.189,189.502,107.951,189.123,108.744,189.123z"/>
</svg>
